svg/u1fac3_1f3ff.svg

<svg viewBox="0 0 128 128" xmlns="http://www.w3.org/2000/svg" xmlns:xlink="http://www.w3.org/1999/xlink">
  <path id="head_22_" d="M90.28,33.52c2.46-10.18-3.27-21.55-11.55-25.01c-6.1-2.53-13.15-2.03-19.26,0.2 C50.04,12,45.97,20.38,46.71,29.5c0.3,4.7,1.58,7.34,3.32,10.98c0.81,2.45-3.08,5.51-2.99,8.2c0.04,2,4.32,2.3,4.71,2.58 c0.43,0.27,0.82,1.13,1.08,1.79c1.88,4.62,3.51,7.63,11.43,6.61c2.68-0.43,4.5-1.26,5.45-1.07c0.95,0.19,1.14,4.19,1.14,4.19 l17.79-2.22c0,0-4.74-7.67-1.21-19.03C87.9,40,89.96,34.69,90.28,33.52z" fill="#70534A"/>
  <path id="mouth_22_" d="M52.85,53.11c0.39,0,0.79-0.03,1.16-0.1c0.92-0.14,1.78-0.42,2.43-0.9 c1.45-1.06,2.67-0.11,1.51,1.25c-0.8,0.94-1.81,1.57-2.92,1.93c-0.37,0.12-0.74,0.22-1.11,0.29L52.85,53.11z" fill="#1A1717"/>
  <path id="hair_22_" d="M86.29,12.49c-4.86-4.69-13.03-7.21-20.45-6.57c-8.34,0.72-18.6,5.65-21.51,14.47 c-1.4,4.24,0.64,6.39,1.11,6.75c0.74,0.57,3.64,0.16,3.65,0.16c3.07-0.31,7.33-1.55,12.45-2.18c2.23-0.27,4.04,1.67,4.25,2.56 c1,4.18,0.7,5.97,2.34,8.47c0.26,0.4,1.2,0.86,1.2,0.86l1.37-2.91c0.89-1.67,1.71-3.13,3.16-3.05c4.29,0.25,4.71,7.77,0.06,10.18 c0,0,1.66,5.71,7.13,6.02c4.8,0.26,6.26-0.36,6.46-2.18c0.43-3.95,1.27-5.75,2.16-7.66c1.05-2.25,2.14-4.57,2.37-10.29 C92.28,21.4,90.29,16.35,86.29,12.49z" fill="#232020"/>
  <radialGradient id="hairHighlights_1_" cx="66.6153" cy="30.7681" gradientTransform="matrix(1 -3.285606e-03 3.240401e-03 0.9862 -0.155 1.6444)" gradientUnits="userSpaceOnUse" r="27.5144">
    <stop offset="0.6531" stop-color="#444140" stop-opacity="0"/>
    <stop offset="1" stop-color="#444140"/>
  </radialGradient>
  <path id="hairHighlights_22_" d="M86.29,12.49c-4.86-4.69-13.03-7.21-20.45-6.57 c-8.15,0.7-18.69,5.49-21.51,14.47c-1.34,4.26,0.59,6.45,1.11,6.75c1.7,0.97,5.79-0.39,15.67-1.98c2.82-0.45,4.49,1.63,4.68,2.57 c0.84,4.21,0.69,5.91,2.33,8.41c0.26,0.4,1.2,0.86,1.2,0.86l1.37-2.91c0.89-1.67,1.71-3.13,3.16-3.05 c4.29,0.25,4.71,7.77,0.06,10.18c0,0,1.66,5.71,7.13,6.02c4.8,0.26,6.26-0.36,6.46-2.18c0.43-3.95,1.27-5.75,2.16-7.66 c1.05-2.25,2.14-4.57,2.37-10.29C92.28,21.4,90.29,16.35,86.29,12.49z" fill="url(#hairHighlights_1_)"/>
  <path id="eye_22_" d="M59.39,42.8c1.77,0.04-0.76,2.27-3.16,2.4c-1.74,0.1-3.79-0.71-3.06-3.34 c0.31-1.12,1.03,0.87,2.55,1.1S59.39,42.8,59.39,42.8z" fill="#1A1717"/>
  <path id="eyebrow_22_" d="M53.57,37.5c-2.08,0.43-2.56-0.58-1.95-1.71c0.45-0.83,2.05-1.31,4.43-0.84 c2.45,0.48,3.39,1.45,4.04,2.19c0.65,0.75,0.63,1.53,0.12,1.63C59.52,38.92,57.09,36.78,53.57,37.5z" fill="#1A1717"/>
  <radialGradient id="SVGID_1_" cx="48.9355" cy="97.5801" gradientUnits="userSpaceOnUse" r="45.2448">
    <stop offset="0.3128" stop-color="#00BFA5"/>
    <stop offset="1" stop-color="#009E89"/>
  </radialGradient>
  <path d="M36.16,124h57.51c0,0-2.29-7.91-1.67-14.68c0.95-10.22,4.33-13.44,4.33-29.56 c0-11.58-6.34-21.93-14.61-21.59C71.21,58.61,67.67,63.7,59.9,68.5c-10.51,6.5-11.6,11.33-10.77,16.89 c0.26,1.78-0.75,2.25-2.08,3.09c-9.18,5.88-16.01,11.97-15.34,24.53C32.07,119.83,36.16,124,36.16,124z" fill="url(#SVGID_1_)"/>
  <linearGradient id="arm_2_" gradientUnits="userSpaceOnUse" x1="62.5035" x2="62.5035" y1="80.9835" y2="124.6199">
    <stop offset="0" stop-color="#5C4037"/>
    <stop offset="0.5056" stop-color="#70534A"/>
  </linearGradient>
  <path id="arm_1_" d="M88.24,70.96c-2.65-5.96-12.42-2.8-13.47,4.75c-0.88,6.33,1.97,28.11,1.97,28.11 s-7.27,3.99-15.61,5c-1.99,0.24-5.81,0.43-6.4,0.14c-1.06-0.52-1.45-1.65-1.95-2.31c-0.62-0.81-1.26-1.63-2.08-2.26 c-0.62-0.47-1.34-0.82-2.04-1.16c-1.17-0.56-2.35-1.12-3.52-1.69c-0.29-0.14-0.63-0.28-0.92-0.16c-0.15,0.07-0.27,0.2-0.36,0.34 c-0.38,0.66-0.04,1.53,0.51,2.06c0.55,0.53,1.27,0.84,1.89,1.28s1.17,1.13,1.1,1.89c-1.72,0.26-4.26,0.3-5.92,0.09 c-1.61-0.21-2.26-0.45-3.45-0.69c-0.61-0.13-1.78-0.51-2.14,0.37c-0.29,0.69,0.08,1.14,0.46,1.49c0.03,0.03,0.06,0.05,0.09,0.08 c-0.16-0.11-0.38-0.25-0.64-0.4c-0.14-0.08-0.32-0.21-0.93-0.14c-0.58,0.07-0.77,0.54-0.81,0.89c-0.13,1.18,1.03,1.85,1.09,1.84 c0,0-0.72-0.06-0.9,0.86c-0.1,0.53,0.23,1.09,0.62,1.62c0.39,0.53,1.26,1.19,1.26,1.19s-0.6,0.05-0.73,0.55 c-0.2,0.76,0.37,1.41,1.37,1.99c0,0,1.53,1.06,3.11,1.64c3.66,1.33,6.9,1.31,8.33,1.17c3.65-0.37,31.92-2.68,37.3-4.55 c5.02-1.75,5.13-5.71,5.42-8.97C91.23,102.02,90.89,76.92,88.24,70.96z" fill="url(#arm_2_)"/>
  <path id="tone_3_" d="M43.36,109.88c0.56-0.01,1.02,0.21,0.54,0.71c-0.26,0.27-2.43-0.14-3.73-0.45 c-1.56-0.37-3.18-1.11-3.94-1.9c-0.28-0.29-0.17-0.29-0.17-0.29c1.21,0.52,2.54,1.14,3.91,1.38 C41.35,109.57,42.8,109.89,43.36,109.88z" fill="#4A2F27"/>
  <path id="tone_2_" d="M43.56,113.85c-0.02,0.49-0.68,0.37-0.94,0.35c-1.73-0.11-3.31-0.68-4.7-1.32 c-2.88-1.32-3.15-2.6-3.15-2.6s2.12,1.35,3.39,1.84c1.27,0.49,2.97,0.95,4.68,1.18C43.05,113.33,43.58,113.36,43.56,113.85z" fill="#4A2F27"/>
  <path id="tone_1_" d="M43.63,116.86c-0.01,0.51-0.69,0.43-1.21,0.38c0,0-1.97-0.35-3.94-1.25 c-2.03-0.93-3.1-2.35-3.1-2.35s2.27,1.24,3.21,1.57c0.84,0.29,2.66,0.8,4.07,1.05C42.89,116.31,43.64,116.41,43.63,116.86z" fill="#4A2F27"/>
  <path id="arm_x5F_shirt_29_" d="M77.08,91.31l12.6-0.79c2.55-0.16,4.44-1.03,4.4-3.32l-1.4-14.7 c-0.99-6.96-5.19-8.47-11.22-8.09c-6.03,0.37-9.42,4.94-9.32,10.37l0.45,13.93C72.64,91,74.53,91.47,77.08,91.31z" fill="#009688"/>
</svg>

<svg viewBox="0 0 128 128" xmlns="http://www.w3.org/2000/svg">
  <defs>
    <radialGradient id="hairHighlights_1_" cx="66.454899" cy="32.434976" gradientTransform="matrix(1 -0.003286 0.00324 0.9862 0 0)" gradientUnits="userSpaceOnUse" r="27.5144">
      <stop offset="0.6531" stop-color="#444140" stop-opacity="0"/>
      <stop offset="1" stop-color="#444140"/>
    </radialGradient>
    <radialGradient id="SVGID_1_" cx="48.9355" cy="97.5801" gradientUnits="userSpaceOnUse" r="45.2448">
      <stop offset="0.3128" stop-color="#00BFA5"/>
      <stop offset="1" stop-color="#009E89"/>
    </radialGradient>
    <linearGradient id="arm_2_" gradientUnits="userSpaceOnUse" x1="62.5035" x2="62.5035" y1="80.9835" y2="124.6199">
      <stop offset="0" stop-color="#5C4037"/>
      <stop offset="0.5056" stop-color="#70534A"/>
    </linearGradient>
  </defs>
  <path id="head_22_" d="M90.28,33.52 C92.74,23.34 87.01,11.97 78.73,8.51 C72.63,5.98 65.58,6.48 59.47,8.71 C50.04,12 45.97,20.38 46.71,29.5 C47.01,34.2 48.29,36.84 50.03,40.48 C50.84,42.93 46.95,45.99 47.04,48.68 C47.08,50.68 51.36,50.98 51.75,51.26 C52.18,51.53 52.57,52.39 52.83,53.05 C54.71,57.67 56.34,60.68 64.26,59.66 C66.94,59.23 68.76,58.4 69.71,58.59 C70.66,58.78 70.85,62.78 70.85,62.78 L88.64,60.56 C88.64,60.56 83.9,52.89 87.43,41.53 C87.9,40 89.96,34.69 90.28,33.52 Z" fill="#70534A"/>
  <path id="mouth_22_" d="M52.85,53.11 C53.24,53.11 53.64,53.08 54.01,53.01 C54.93,52.87 55.79,52.59 56.44,52.11 C57.89,51.05 59.11,52 57.95,53.36 C57.15,54.3 56.14,54.93 55.03,55.29 C54.66,55.41 54.29,55.51 53.92,55.58 L52.85,53.11 Z" fill="#1A1717"/>
  <path id="hair_22_" d="M86.29,12.49 C81.43,7.8 73.26,5.28 65.84,5.92 C57.5,6.64 47.24,11.57 44.33,20.39 C42.93,24.63 44.97,26.78 45.44,27.14 C46.18,27.71 49.08,27.3 49.09,27.3 C52.16,26.99 56.42,25.75 61.54,25.12 C63.77,24.85 65.58,26.79 65.79,27.68 C66.79,31.86 66.49,33.65 68.13,36.15 C68.39,36.55 69.33,37.01 69.33,37.01 L70.7,34.1 C71.59,32.43 72.41,30.97 73.86,31.05 C78.15,31.3 78.57,38.82 73.92,41.23 C73.92,41.23 75.58,46.94 81.05,47.25 C85.85,47.51 87.31,46.89 87.51,45.07 C87.94,41.12 88.78,39.32 89.67,37.41 C90.72,35.16 91.81,32.84 92.04,27.12 C92.28,21.4 90.29,16.35 86.29,12.49 Z" fill="#232020"/>
  <path id="hairHighlights_22_" d="M86.29,12.49 C81.43,7.8 73.26,5.28 65.84,5.92 C57.69,6.62 47.15,11.41 44.33,20.39 C42.99,24.65 44.92,26.84 45.44,27.14 C47.14,28.11 51.23,26.75 61.11,25.16 C63.93,24.71 65.6,26.79 65.79,27.73 C66.63,31.94 66.48,33.64 68.12,36.14 C68.38,36.54 69.32,37 69.32,37 L70.69,34.09 C71.58,32.42 72.4,30.96 73.85,31.04 C78.14,31.29 78.56,38.81 73.91,41.22 C73.91,41.22 75.57,46.93 81.04,47.24 C85.84,47.5 87.3,46.88 87.5,45.06 C87.93,41.11 88.77,39.31 89.66,37.4 C90.71,35.15 91.8,32.83 92.03,27.11 C92.28,21.4 90.29,16.35 86.29,12.49 Z" fill="url(#hairHighlights_1_)"/>
  <path id="eye_22_" d="M59.39,42.8 C61.16,42.84 58.63,45.07 56.23,45.2 C54.49,45.3 52.44,44.49 53.17,41.86 C53.48,40.74 54.2,42.73 55.72,42.96 C57.24,43.19 59.39,42.8 59.39,42.8 Z" fill="#1A1717"/>
  <path id="eyebrow_22_" d="M53.57,37.5 C51.49,37.93 51.01,36.92 51.62,35.79 C52.07,34.96 53.67,34.48 56.05,34.95 C58.5,35.43 59.44,36.4 60.09,37.14 C60.74,37.89 60.72,38.67 60.21,38.77 C59.52,38.92 57.09,36.78 53.57,37.5 Z" fill="#1A1717"/>
  <path d="M36.16,124 L93.67,124 C93.67,124 91.38,116.09 92,109.32 C92.95,99.1 96.33,95.88 96.33,79.76 C96.33,68.18 89.99,57.83 81.72,58.17 C71.21,58.61 67.67,63.7 59.9,68.5 C49.39,75 48.3,79.83 49.13,85.39 C49.39,87.17 48.38,87.64 47.05,88.48 C37.87,94.36 31.04,100.45 31.71,113.01 C32.07,119.83 36.16,124 36.16,124 Z" fill="url(#SVGID_1_)"/>
  <path id="arm_1_" d="M88.24,70.96 C85.59,65 75.82,68.16 74.77,75.71 C73.89,82.04 76.74,103.82 76.74,103.82 C76.74,103.82 69.47,107.81 61.13,108.82 C59.14,109.06 55.32,109.25 54.73,108.96 C53.67,108.44 53.28,107.31 52.78,106.65 C52.16,105.84 51.52,105.02 50.7,104.39 C50.08,103.92 49.36,103.57 48.66,103.23 C47.49,102.67 46.31,102.11 45.14,101.54 C44.85,101.4 44.51,101.26 44.22,101.38 C44.07,101.45 43.95,101.58 43.86,101.72 C43.48,102.38 43.82,103.25 44.37,103.78 C44.92,104.31 45.64,104.62 46.26,105.06 C46.88,105.5 47.43,106.19 47.36,106.95 C45.64,107.21 43.1,107.25 41.44,107.04 C39.83,106.83 39.18,106.59 37.99,106.35 C37.38,106.22 36.21,105.84 35.85,106.72 C35.56,107.41 35.93,107.86 36.31,108.21 C36.34,108.24 36.37,108.26 36.4,108.29 C36.24,108.18 36.02,108.04 35.76,107.89 C35.62,107.81 35.44,107.68 34.83,107.75 C34.25,107.82 34.06,108.29 34.02,108.64 C33.89,109.82 35.05,110.49 35.11,110.48 C35.11,110.48 34.39,110.42 34.21,111.34 C34.11,111.87 34.44,112.43 34.83,112.96 C35.22,113.49 36.09,114.15 36.09,114.15 C36.09,114.15 35.49,114.2 35.36,114.7 C35.16,115.46 35.73,116.11 36.73,116.69 C36.73,116.69 38.26,117.75 39.84,118.33 C43.5,119.66 46.74,119.64 48.17,119.5 C51.82,119.13 80.09,116.82 85.47,114.95 C90.49,113.2 90.6,109.24 90.89,105.98 C91.23,102.02 90.89,76.92 88.24,70.96 Z" fill="url(#arm_2_)"/>
  <path id="tone_3_" d="M43.36,109.88 C43.92,109.87 44.38,110.09 43.9,110.59 C43.64,110.86 41.47,110.45 40.17,110.14 C38.61,109.77 36.99,109.03 36.23,108.24 C35.95,107.95 36.06,107.95 36.06,107.95 C37.27,108.47 38.6,109.09 39.97,109.33 C41.35,109.57 42.8,109.89 43.36,109.88 Z" fill="#4A2F27"/>
  <path id="tone_2_" d="M43.56,113.85 C43.54,114.34 42.88,114.22 42.62,114.2 C40.89,114.09 39.31,113.52 37.92,112.88 C35.04,111.56 34.77,110.28 34.77,110.28 C34.77,110.28 36.89,111.63 38.16,112.12 C39.43,112.61 41.13,113.07 42.84,113.3 C43.05,113.33 43.58,113.36 43.56,113.85 Z" fill="#4A2F27"/>
  <path id="tone_1_" d="M43.63,116.86 C43.62,117.37 42.94,117.29 42.42,117.24 C42.42,117.24 40.45,116.89 38.48,115.99 C36.45,115.06 35.38,113.64 35.38,113.64 C35.38,113.64 37.65,114.88 38.59,115.21 C39.43,115.5 41.25,116.01 42.66,116.26 C42.89,116.31 43.64,116.41 43.63,116.86 Z" fill="#4A2F27"/>
  <path id="arm_x5F_shirt_29_" d="M77.08,91.31 L89.68,90.52 C92.23,90.36 94.12,89.49 94.08,87.2 L92.68,72.5 C91.69,65.54 87.49,64.03 81.46,64.41 C75.43,64.78 72.04,69.35 72.14,74.78 L72.59,88.71 C72.64,91 74.53,91.47 77.08,91.31 Z" fill="#009688"/>
</svg>
